src/assets/images/currencies/usd.svg

<svg height="32" viewBox="0 0 32 32" width="32" xmlns="http://www.w3.org/2000/svg"><path d="m16.8649835 24v-2.4763996c.9366996-.1990486 1.6831321-.6059275 2.2392975-1.2206366s.8342481-1.3962679.8342481-2.3446762c0-.7025247-.1844127-1.2938163-.5532382-1.7738749-.3688255-.4800585-.816685-.8371752-1.3435785-1.0713501s-1.0508599-.4361508-1.571899-.6059276c-.5210392-.1697768-.9659715-.3688255-1.3347969-.597146-.3688255-.2283205-.5532382-.5122576-.5532382-.8518112 0-.3278448.1463593-.5942188.4390779-.7991218.2927186-.2049031.7142334-.3073546 1.2645445-.3073546.4449323 0 .9132821.0878156 1.4050494.2634468l.3336992 1.2996707h1.5104281l.0702525-2.8803513-.3512624-.1229418c-.2341749-.09367-.5795829-.1931943-1.0362239-.298573-.4566411-.1053787-.9074278-.1756312-1.3523601-.2107574v-2.0021954h-1.8792535v2.0724479c-.9132821.1756311-1.6392243.5444566-2.1778266 1.1064764-.5386023.5620197-.8079034 1.2879619-.8079034 2.1778265 0 .5386023.0995243 1.0157336.298573 1.4313941.1990487.4156604.4566411.7435053.7727772.9835346.3161361.2400292.6644712.4507867 1.0450055.6322722.3805342.1814855.7610684.3336992 1.1416026.4566411.3805342.1229418.7288694.2458836 1.0450055.3688254s.5737285.2780827.7727771.4654226c.1990487.18734.298573.4039517.298573.6498354 0 .3980973-.1873399.7054519-.5620197.9220636-.3746799.2166118-.8430297.3249177-1.4050494.3249177-.6205635 0-1.1298939-.1053787-1.5279912-.3161361l-.2634468-1.3172338h-1.6158068v3.1086718l.3863886.1229418c.2575924.0819612.6351994.1697768 1.1328211.2634468.4976216.0936699.9864617.1522137 1.4665203.1756311v2.3710209z" fill="#ff9580" fill-rule="evenodd"/></svg>

<svg xmlns="http://www.w3.org/2000/svg" width="32" height="32" viewBox="0 0 32 32">
  <path fill="#FF9580" fill-rule="evenodd" d="M16.8649835,24 L16.8649835,21.5236004 C17.8016831,21.3245518 18.5481156,20.9176729 19.104281,20.3029638 C19.6604464,19.6882547 19.9385291,18.9066959 19.9385291,17.9582876 C19.9385291,17.2557629 19.7541164,16.6644713 19.3852909,16.1844127 C19.0164654,15.7043542 18.5686059,15.3472375 18.0417124,15.1130626 C17.5148189,14.8788877 16.9908525,14.6769118 16.4698134,14.507135 C15.9487742,14.3373582 15.5038419,14.1383095 15.1350165,13.909989 C14.766191,13.6816685 14.5817783,13.3977314 14.5817783,13.0581778 C14.5817783,12.730333 14.7281376,12.463959 15.0208562,12.259056 C15.3135748,12.0541529 15.7350896,11.9517014 16.2854007,11.9517014 C16.730333,11.9517014 17.1986828,12.039517 17.6904501,12.2151482 L17.6904501,12.2151482 L18.0241493,13.5148189 L19.5345774,13.5148189 L19.6048299,10.6344676 L19.2535675,10.5115258 C19.0193926,10.4178558 18.6739846,10.3183315 18.2173436,10.2129528 C17.7607025,10.1075741 17.3099158,10.0373216 16.8649835,10.0021954 L16.8649835,10.0021954 L16.8649835,8 L14.98573,8 L14.98573,10.0724479 C14.0724479,10.248079 13.3465057,10.6169045 12.8079034,11.1789243 C12.2693011,11.740944 12,12.4668862 12,13.3567508 C12,13.8953531 12.0995243,14.3724844 12.298573,14.7881449 C12.4976217,15.2038053 12.7552141,15.5316502 13.0713502,15.7716795 C13.3874863,16.0117087 13.7358214,16.2224662 14.1163557,16.4039517 C14.4968899,16.5854372 14.8774241,16.7376509 15.2579583,16.8605928 C15.6384925,16.9835346 15.9868277,17.1064764 16.3029638,17.2294182 C16.6190999,17.35236 16.8766923,17.5075009 17.0757409,17.6948408 C17.2747896,17.8821808 17.3743139,18.0987925 17.3743139,18.3446762 C17.3743139,18.7427735 17.186974,19.0501281 16.8122942,19.2667398 C16.4376143,19.4833516 15.9692645,19.5916575 15.4072448,19.5916575 C14.7866813,19.5916575 14.2773509,19.4862788 13.8792536,19.2755214 L13.8792536,19.2755214 L13.6158068,17.9582876 L12,17.9582876 L12,21.0669594 L12.3863886,21.1899012 C12.643981,21.2718624 13.021588,21.359678 13.5192097,21.453348 C14.0168313,21.5470179 14.5056714,21.6055617 14.98573,21.6289791 L14.98573,21.6289791 L14.98573,24 L16.8649835,24 Z"/>
</svg>
